X:1T:Rakes of MallowC:from the playing of Sally Sloane
L:1/8
M:2/4
K:G|D/2F/2|:GB GB| GB dB/2G/2|FA FA| FA dB/2A/2|
|GB GB|GB d>B|c/2B/2A/2G/2 FA|BG G2:|
|:gf ed|Bc d2|gf ed|cBA2|
|gf ed|Bc d>B|cA FA|BG G2:|